assets/img/braze_icons/globe-slated-02.svg

<svg fill="none" height="24" viewBox="0 0 24 24" width="24" xmlns="http://www.w3.org/2000/svg"><path clip-rule="evenodd" d="m17.5104 2.07561c.3905-.39053 1.0237-.39053 1.4142 0 4.1005 4.1005 4.1005 10.74869 0 14.84919-1.6677 1.6678-3.7568 2.6572-5.9246 2.9684v1.1068h4c.5523 0 1 .4477 1 1s-.4477 1-1 1h-10c-.55228 0-1-.4477-1-1s.44772-1 1-1h4v-1.0116c-2.20589-.1045-4.38511-.9011-6.18435-2.3897l-1.44741 1.4474c-.39052.3905-1.02369.3905-1.41421 0-.39053-.3905-.39053-1.0237 0-1.4142l3.93963-3.9397c-.87524-1.1686-1.39366-2.6198-1.39366-4.1922 0-3.86599 3.13401-7 7-7 3.866 0 7 3.13401 7 7 0 3.866-3.134 7-7 7-1.57231 0-3.02354-.5184-4.19211-1.3936l-1.07011 1.0701c3.3362 2.6364 8.19232 2.4144 11.27262-.6659 3.3194-3.3194 3.3194-8.70132 0-12.02078-.3905-.39052-.3905-1.02369 0-1.41421z" fill="#801ed7" fill-rule="evenodd"/></svg>

<svg width="24" height="24" viewBox="0 0 24 24" fill="none" xmlns="http://www.w3.org/2000/svg">
<path fill-rule="evenodd" clip-rule="evenodd" d="M17.5104 2.07561C17.9009 1.68508 18.5341 1.68508 18.9246 2.07561C23.0251 6.17611 23.0251 12.8243 18.9246 16.9248C17.2569 18.5926 15.1678 19.582 13 19.8932V21H17C17.5523 21 18 21.4477 18 22C18 22.5523 17.5523 23 17 23H7C6.44772 23 6 22.5523 6 22C6 21.4477 6.44772 21 7 21H11V19.9884C8.79411 19.8839 6.61489 19.0873 4.81565 17.5987L3.36824 19.0461C2.97772 19.4366 2.34455 19.4366 1.95403 19.0461C1.5635 18.6556 1.5635 18.0224 1.95403 17.6319L5.89366 13.6922C5.01842 12.5236 4.5 11.0724 4.5 9.5C4.5 5.63401 7.63401 2.5 11.5 2.5C15.366 2.5 18.5 5.63401 18.5 9.5C18.5 13.366 15.366 16.5 11.5 16.5C9.92769 16.5 8.47646 15.9816 7.30789 15.1064L6.23778 16.1765C9.57398 18.8129 14.4301 18.5909 17.5104 15.5106C20.8298 12.1912 20.8298 6.80928 17.5104 3.48982C17.1199 3.0993 17.1199 2.46613 17.5104 2.07561Z" fill="#801ED7"/>
</svg>
